icons/default/Sun.svg

<path
	d="M18.4997 9.25004C18.9085 9.25004 19.3007 9.08761 19.5898 8.7985C19.8789 8.50938 20.0413 8.11725 20.0413 7.70837V4.62504C20.0413 4.21617 19.8789 3.82404 19.5898 3.53492C19.3007 3.2458 18.9085 3.08337 18.4997 3.08337C18.0908 3.08337 17.6987 3.2458 17.4096 3.53492C17.1204 3.82404 16.958 4.21617 16.958 4.62504V7.70837C16.958 8.11725 17.1204 8.50938 17.4096 8.7985C17.6987 9.08761 18.0908 9.25004 18.4997 9.25004ZM32.3747 16.9584H29.2913C28.8825 16.9584 28.4903 17.1208 28.2012 17.4099C27.9121 17.699 27.7497 18.0912 27.7497 18.5C27.7497 18.9089 27.9121 19.301 28.2012 19.5902C28.4903 19.8793 28.8825 20.0417 29.2913 20.0417H32.3747C32.7835 20.0417 33.1757 19.8793 33.4648 19.5902C33.7539 19.301 33.9163 18.9089 33.9163 18.5C33.9163 18.0912 33.7539 17.699 33.4648 17.4099C33.1757 17.1208 32.7835 16.9584 32.3747 16.9584ZM9.24967 18.5C9.24967 18.0912 9.08725 17.699 8.79813 17.4099C8.50901 17.1208 8.11688 16.9584 7.70801 16.9584H4.62467C4.2158 16.9584 3.82367 17.1208 3.53455 17.4099C3.24543 17.699 3.08301 18.0912 3.08301 18.5C3.08301 18.9089 3.24543 19.301 3.53455 19.5902C3.82367 19.8793 4.2158 20.0417 4.62467 20.0417H7.70801C8.11688 20.0417 8.50901 19.8793 8.79813 19.5902C9.08725 19.301 9.24967 18.9089 9.24967 18.5ZM9.58884 7.70837C9.28832 7.42421 8.88722 7.27106 8.47378 7.28262C8.06034 7.29419 7.66843 7.46952 7.38426 7.77004C7.10009 8.07056 6.94694 8.47166 6.95851 8.8851C6.97007 9.29854 7.1454 9.69045 7.44592 9.97462L9.66592 12.1175C9.8149 12.2614 9.99134 12.3738 10.1847 12.4479C10.3781 12.5221 10.5844 12.5565 10.7913 12.5492C10.999 12.5484 11.2044 12.5057 11.3951 12.4235C11.5859 12.3414 11.758 12.2216 11.9013 12.0713C12.1885 11.7824 12.3496 11.3917 12.3496 10.9844C12.3496 10.5771 12.1885 10.1864 11.9013 9.89754L9.58884 7.70837ZM26.208 12.5492C26.6049 12.5476 26.986 12.393 27.2718 12.1175L29.4918 9.97462C29.7626 9.69165 29.9155 9.31621 29.9196 8.92455C29.9236 8.53288 29.7784 8.15437 29.5135 7.86588C29.2485 7.5774 28.8837 7.40057 28.4931 7.37132C28.1025 7.34206 27.7155 7.46257 27.4105 7.70837L25.1905 9.89754C24.9034 10.1864 24.7422 10.5771 24.7422 10.9844C24.7422 11.3917 24.9034 11.7824 25.1905 12.0713C25.4574 12.353 25.8208 12.5236 26.208 12.5492ZM18.4997 27.75C18.0908 27.75 17.6987 27.9125 17.4096 28.2016C17.1204 28.4907 16.958 28.8828 16.958 29.2917V32.375C16.958 32.7839 17.1204 33.176 17.4096 33.4652C17.6987 33.7543 18.0908 33.9167 18.4997 33.9167C18.9085 33.9167 19.3007 33.7543 19.5898 33.4652C19.8789 33.176 20.0413 32.7839 20.0413 32.375V29.2917C20.0413 28.8828 19.8789 28.4907 19.5898 28.2016C19.3007 27.9125 18.9085 27.75 18.4997 27.75ZM27.3334 24.8825C27.039 24.5984 26.6438 24.4428 26.2347 24.45C25.8256 24.4572 25.4361 24.6267 25.152 24.9211C24.8678 25.2155 24.7122 25.6107 24.7194 26.0198C24.7267 26.4289 24.8961 26.8184 25.1905 27.1025L27.4105 29.2917C27.6963 29.5672 28.0773 29.7218 28.4743 29.7234C28.6808 29.7246 28.8855 29.6843 29.0762 29.6048C29.2669 29.5254 29.4397 29.4084 29.5843 29.2609C29.7288 29.1176 29.8434 28.947 29.9217 28.7592C30 28.5713 30.0403 28.3698 30.0403 28.1663C30.0403 27.9628 30 27.7613 29.9217 27.5734C29.8434 27.3855 29.7288 27.215 29.5843 27.0717L27.3334 24.8825ZM9.66592 24.8825L7.44592 27.0255C7.30143 27.1688 7.18674 27.3393 7.10847 27.5271C7.0302 27.715 6.9899 27.9165 6.9899 28.12C6.9899 28.3236 7.0302 28.5251 7.10847 28.7129C7.18674 28.9008 7.30143 29.0713 7.44592 29.2146C7.59052 29.3621 7.76329 29.4791 7.95397 29.5586C8.14465 29.638 8.34936 29.6783 8.55592 29.6771C8.93597 29.6804 9.30381 29.5431 9.58884 29.2917L11.8088 27.1488C12.1032 26.8646 12.2727 26.4751 12.2799 26.066C12.2871 25.6569 12.1316 25.2617 11.8474 24.9673C11.5632 24.6729 11.1737 24.5035 10.7646 24.4963C10.3555 24.489 9.96031 24.6446 9.66592 24.9288V24.8825ZM18.4997 12.3334C17.28 12.3334 16.0878 12.695 15.0737 13.3726C14.0596 14.0502 13.2692 15.0133 12.8024 16.1402C12.3357 17.267 12.2136 18.5069 12.4515 19.7031C12.6894 20.8993 13.2768 21.9981 14.1392 22.8605C15.0016 23.723 16.1004 24.3103 17.2966 24.5482C18.4928 24.7862 19.7327 24.664 20.8596 24.1973C21.9864 23.7306 22.9495 22.9402 23.6271 21.9261C24.3047 20.912 24.6663 19.7197 24.6663 18.5C24.6663 16.8645 24.0166 15.296 22.8602 14.1395C21.7037 12.9831 20.1352 12.3334 18.4997 12.3334V12.3334Z"
	fill="#EFEFEF" />

<path d="M18.5 9.25a1.542 1.542 0 0 0 1.541-1.542V4.625a1.542 1.542 0 1 0-3.083 0v3.083A1.541 1.541 0 0 0 18.5 9.25Zm13.875 7.708H29.29a1.542 1.542 0 0 0 0 3.084h3.084a1.542 1.542 0 0 0 0-3.084ZM9.25 18.5a1.542 1.542 0 0 0-1.542-1.542H4.625a1.542 1.542 0 1 0 0 3.084h3.083A1.542 1.542 0 0 0 9.25 18.5Zm.339-10.792a1.56 1.56 0 0 0-2.143 2.267l2.22 2.143a1.54 1.54 0 0 0 1.125.431 1.54 1.54 0 0 0 1.11-.478 1.542 1.542 0 0 0 0-2.173L9.59 7.708Zm16.619 4.841a1.542 1.542 0 0 0 1.064-.431l2.22-2.143a1.542 1.542 0 0 0-2.082-2.267l-2.22 2.19a1.542 1.542 0 0 0 0 2.173c.267.282.63.453 1.018.478ZM18.5 27.75a1.542 1.542 0 0 0-1.542 1.542v3.083a1.542 1.542 0 1 0 3.083 0v-3.083A1.542 1.542 0 0 0 18.5 27.75Zm8.833-2.867a1.543 1.543 0 0 0-2.142 2.22l2.22 2.189a1.542 1.542 0 0 0 2.173-.031 1.543 1.543 0 0 0 0-2.19l-2.25-2.189Zm-17.667 0-2.22 2.143a1.542 1.542 0 0 0 0 2.189 1.543 1.543 0 0 0 1.11.462c.38.003.748-.134 1.033-.385l2.22-2.143a1.543 1.543 0 1 0-2.143-2.22v-.046Zm8.834-12.55a6.166 6.166 0 1 0 0 12.333 6.166 6.166 0 0 0 0-12.333Z" fill="#EFEFEF"/>
